img/partners/mvideo.svg

<svg width="229" height="57" viewBox="0 0 229 57" fill="none" xmlns="http://www.w3.org/2000/svg">
<path d="M181.826 48.291C198.553 39.4893 202.558 28.3814 197.422 25.228C189.836 20.9918 168.962 28.5701 171.365 49.3738C170.329 49.9855 168.255 51.1152 168.255 51.1152L169.622 55.3039C169.622 55.3039 172.543 53.5626 173.297 53.0446C175.747 55.0215 177.019 56.1043 180.789 56.198C188.846 56.3867 195.772 47.4438 195.772 47.4438L193.746 44.2904C193.793 44.2904 184.935 52.8097 181.826 48.291ZM184.04 35.5355C186.443 31.2999 190.307 28.0053 192.239 29.323C194.124 30.6407 190.307 37.3243 181.307 44.4784C180.93 43.8199 181.637 39.7717 184.04 35.5355ZM30.2915 56.198C29.0664 56.198 27.2288 55.7275 25.9095 54.3629C21.9044 50.1736 25.6739 36.0066 26.4749 32.9469C26.5692 32.6645 26.3335 32.3821 26.0509 32.3821C25.8623 32.3821 25.721 32.4764 25.6268 32.6176C23.9305 36.0535 14.7424 56.198 6.63789 56.198C6.49659 56.198 6.30806 56.198 6.1667 56.198C-1.70208 55.4451 -0.665516 44.6196 1.78467 38.0304H14.4596C13.423 40.8545 13.0932 42.6427 13.0932 43.5843C13.1403 44.2435 13.7057 44.6196 14.224 44.3372C15.5434 43.6312 17.7108 40.807 19.5956 37.5599C22.9881 31.5823 27.4173 22.6394 35.0034 0H48.9037C44.8042 12.6143 41.4587 24.004 39.621 37.0419C39.5268 37.7011 40.2807 38.2184 40.8932 37.7011C44.8511 33.9829 59.317 2.72979 60.212 0H74.1593C74.1593 0 60.4478 37.8892 61.5781 44.2435C61.767 45.42 63.0393 45.5612 63.6516 44.7608C64.4529 43.7724 65.5838 42.3134 66.3844 41.4194L68.3635 43.3963C64.4053 48.291 57.9502 57.0927 51.542 56.0568C50.5525 55.8687 49.563 55.3039 48.8562 54.5978C42.1654 48.809 51.4951 29.4167 53.1439 24.8512C53.5211 23.8628 53.8507 22.9218 54.0865 22.357C54.181 22.0746 53.9921 21.7453 53.6625 21.7453C53.4742 21.7453 53.3328 21.839 53.2384 21.9802C52.9088 22.6863 52.0606 24.522 51.7303 25.1336C47.6315 33.6529 38.1132 56.198 30.2915 56.198ZM161.281 9.69582C155.109 9.55461 151.151 13.3672 151.151 13.3672L151.245 17.0855C151.245 17.0855 155.674 12.6143 160.292 14.5437C163.308 15.7677 165.57 19.2973 163.873 25.4636C163.779 25.8397 163.591 26.5457 163.496 26.9225C162.177 24.0983 157.276 21.9334 150.444 27.1105C145.449 30.8763 144.178 34.877 143.188 38.1247C141.775 42.8783 141.868 48.0086 142.952 51.0677C143.659 53.0921 145.544 55.3507 148.183 56.3392C159.491 60.6223 168.396 43.1607 171.13 30.5939C172.873 22.6394 174.192 9.93138 161.281 9.69582ZM155.203 47.9142C153.931 48.7615 151.764 49.1383 151.434 45.2313C151.009 39.6305 155.109 33.0413 156.334 31.488C158.455 28.8994 161.329 28.7582 161.281 32.8057C161.234 37.5124 158.36 45.8436 155.203 47.9142ZM121.09 6.44804C114.399 4.14187 90.7449 11.6259 82.97 37.748C82.028 38.0304 77.4575 39.16 77.4575 39.16L75.4785 44.5259L82.499 42.3603C82.499 42.3603 81.7453 55.7744 93.5246 56.198C102.808 55.8687 107.661 42.2191 104.692 32.9469C104.127 33.2293 96.6821 36.8064 96.6821 36.8064C96.6821 36.8064 98.2365 45.8905 94.9382 47.9618C94.4203 48.291 93.7604 48.2442 93.3363 47.6318C92.3937 46.3141 91.7814 42.8314 92.8178 38.2184C109.828 29.3699 121.466 13.8377 122.173 8.4718C122.409 7.10723 121.325 6.5424 121.09 6.44804ZM99.9328 29.5579C96.7759 31.9584 94.3259 33.1825 94.3259 33.1825C94.3259 33.1825 95.221 31.1112 95.8809 29.9347C97.7186 26.8756 106.482 15.0617 113.833 12.8967C114.116 12.8024 114.351 13.038 114.304 13.3197C114.304 15.909 104.975 25.746 99.9328 29.5579ZM134.989 48.8558C134.895 49.2326 135.272 49.4207 135.508 49.2795C136.639 48.5734 138.146 47.3494 138.146 47.3494L139.089 50.2204C138.523 50.8328 134 54.4098 131.173 55.7275C128.11 57.1396 125.33 55.257 124.906 52.9977C124.482 50.3616 125.801 46.9258 125.801 46.9258C125.801 46.9258 120.948 52.4797 116.001 55.1627C114.634 55.9156 113.597 56.198 112.749 56.198C109.404 56.1043 108.367 52.9034 108.744 51.162C109.168 49.0914 113.692 35.2062 114.257 32.9469C114.304 32.712 114.068 32.4764 113.786 32.5233C112.42 32.9001 108.839 35.2531 108.839 35.2531V31.3936C108.839 31.3936 119.204 24.3339 121.796 23.581C124.199 22.9218 126.272 24.2864 125.66 27.0168C125.377 28.8994 118.64 45.2313 118.64 47.3026C118.64 47.6793 118.969 47.7262 119.063 47.6793C120.995 47.1145 124.529 44.1023 127.215 39.8186C129.759 35.8179 131.455 30.7819 133.576 24.5219H142.575C142.575 24.5688 135.743 45.42 134.989 48.8558ZM228.991 29.2755C229.18 32.194 226.4 47.585 215.091 53.7506C211.746 55.5863 209.484 56.2923 207.458 56.198C202.652 56.0568 200.39 52.1505 199.872 50.8796C194.359 37.23 210.473 24.5688 210.473 24.5688H219.803C219.803 24.5688 205.573 35.9123 207.552 45.9848C209.107 52.1036 214.809 49.1383 217.966 42.2191C218.578 40.8545 222.395 31.7704 219.992 31.6292C217.871 31.488 215.044 35.9591 215.044 35.9591L213.065 32.9469C214.62 30.97 218.955 25.7928 223.808 24.1452C224.609 23.9103 228.944 23.0162 228.991 29.2755ZM72.6043 48.7615C74.6772 48.7615 76.3266 50.4091 76.3266 52.4797C76.3266 54.551 74.6772 56.198 72.6043 56.198C70.5308 56.198 68.882 54.551 68.882 52.4797C68.882 50.4091 70.5784 48.7615 72.6043 48.7615Z" fill="#E31235"/>
</svg>

<svg width="229" height="57" fill="none" xmlns="http://www.w3.org/2000/svg"><path d="M181.826 48.291c16.727-8.802 20.732-19.91 15.596-23.063-7.586-4.236-28.46 3.342-26.057 24.146-1.036.611-3.11 1.741-3.11 1.741l1.367 4.189s2.921-1.741 3.675-2.26c2.45 1.978 3.722 3.06 7.492 3.154 8.057.189 14.983-8.754 14.983-8.754l-2.026-3.154c.047 0-8.811 8.52-11.92 4.001Zm2.214-12.755c2.403-4.236 6.267-7.53 8.199-6.213 1.885 1.318-1.932 8.001-10.932 15.155-.377-.658.33-4.706 2.733-8.943ZM30.292 56.197c-1.226 0-3.063-.47-4.383-1.835-4.005-4.19-.235-18.356.566-21.416.094-.283-.142-.565-.424-.565a.495.495 0 0 0-.424.236c-1.697 3.435-10.885 23.58-18.99 23.58h-.47c-7.87-.753-6.833-11.578-4.382-18.168H14.46c-1.037 2.825-1.367 4.613-1.367 5.554.047.66.613 1.036 1.131.753 1.32-.706 3.487-3.53 5.372-6.777C22.988 31.582 27.417 22.64 35.003 0h13.9c-4.099 12.614-7.444 24.004-9.282 37.042a.756.756 0 0 0 1.272.66C44.851 33.981 59.317 2.73 60.212 0h13.947S60.448 37.89 61.58 44.243c.188 1.177 1.46 1.318 2.073.518.8-.989 1.932-2.448 2.732-3.342l1.98 1.977c-3.959 4.895-10.414 13.697-16.822 12.66-.99-.187-1.979-.752-2.686-1.458-6.69-5.789 2.64-25.181 4.288-29.747.377-.988.707-1.93.943-2.494.094-.282-.095-.612-.425-.612a.495.495 0 0 0-.424.235c-.33.706-1.177 2.542-1.508 3.154-4.098 8.519-13.617 31.064-21.438 31.064ZM161.28 9.696c-6.172-.141-10.13 3.671-10.13 3.671l.094 3.718s4.429-4.47 9.047-2.541c3.016 1.224 5.278 4.753 3.581 10.92-.094.376-.282 1.082-.377 1.459-1.319-2.825-6.22-4.99-13.052.188-4.995 3.765-6.266 7.766-7.256 11.014-1.413 4.753-1.32 9.884-.236 12.943.707 2.024 2.592 4.283 5.231 5.271 11.308 4.283 20.213-13.178 22.947-25.745 1.743-7.955 3.062-20.663-9.849-20.898Zm-6.078 38.218c-1.272.847-3.439 1.224-3.769-2.683-.425-5.6 3.675-12.19 4.9-13.743 2.121-2.589 4.995-2.73 4.947 1.318-.047 4.706-2.921 13.038-6.078 15.108ZM121.09 6.448c-6.691-2.306-30.345 5.178-38.12 31.3-.942.282-5.513 1.412-5.513 1.412l-1.978 5.366 7.02-2.166s-.754 13.414 11.026 13.838c9.283-.33 14.136-13.979 11.167-23.251-.565.282-8.01 3.86-8.01 3.86s1.555 9.084-1.744 11.155c-.518.329-1.178.282-1.602-.33-.942-1.318-1.555-4.8-.518-9.414 17.01-8.848 28.648-24.38 29.355-29.746.236-1.365-.848-1.93-1.083-2.024Zm-21.157 23.11c-3.157 2.4-5.607 3.624-5.607 3.624s.895-2.07 1.555-3.247c1.838-3.06 10.601-14.873 17.952-17.038.283-.095.518.141.471.423 0 2.589-9.329 12.426-14.371 16.238Zm35.056 19.298a.36.36 0 0 0 .519.423c1.131-.706 2.638-1.93 2.638-1.93l.943 2.871c-.566.613-5.089 4.19-7.916 5.508-3.063 1.412-5.843-.471-6.267-2.73-.424-2.636.895-6.072.895-6.072s-4.853 5.554-9.8 8.237c-1.367.753-2.404 1.035-3.252 1.035-3.345-.094-4.382-3.295-4.005-5.036.424-2.07 4.948-15.956 5.513-18.215.047-.235-.189-.47-.471-.424-1.366.377-4.947 2.73-4.947 2.73v-3.86s10.365-7.06 12.957-7.812c2.403-.66 4.476.705 3.864 3.436-.283 1.882-7.02 18.214-7.02 20.286 0 .376.329.423.423.376 1.932-.565 5.466-3.577 8.152-7.86 2.544-4.001 4.24-9.037 6.361-15.297h8.999c0 .047-6.832 20.898-7.586 24.334Zm94.002-19.58c.189 2.918-2.591 18.309-13.9 24.475-3.345 1.835-5.607 2.541-7.633 2.447-4.806-.141-7.068-4.047-7.586-5.318-5.513-13.65 10.601-26.311 10.601-26.311h9.33s-14.23 11.343-12.251 21.416c1.555 6.119 7.257 3.153 10.414-3.766.612-1.364 4.429-10.449 2.026-10.59-2.121-.141-4.948 4.33-4.948 4.33l-1.979-3.012c1.555-1.977 5.89-7.154 10.743-8.802.801-.235 5.136-1.129 5.183 5.13ZM72.604 48.76a3.699 3.699 0 0 1 3.723 3.719 3.698 3.698 0 0 1-3.723 3.718 3.698 3.698 0 0 1-3.722-3.718c0-2.07 1.696-3.718 3.722-3.718Z" fill="#E31235"/></svg>
